polaris-icons/icons/new-icons/FolderUpMajor.svg

<svg width="20" height="20" viewBox="0 0 20 20" fill="none" xmlns="http://www.w3.org/2000/svg">
<path d="M4.5 6.75C4.5 6.05964 5.05964 5.5 5.75 5.5H7.26393C7.7374 5.5 8.17023 5.7675 8.38197 6.19098L8.55279 6.53262C8.84922 7.1255 9.45518 7.5 10.118 7.5H14.25C14.9404 7.5 15.5 8.05964 15.5 8.75C15.5 9.16421 15.8358 9.5 16.25 9.5C16.6642 9.5 17 9.16421 17 8.75C17 7.23122 15.7688 6 14.25 6H10.118C10.0233 6 9.93678 5.9465 9.89443 5.8618L9.72361 5.52016C9.25778 4.58851 8.30556 4 7.26393 4H5.75C4.23122 4 3 5.23122 3 6.75V13.25C3 14.7688 4.23122 16 5.75 16H11.75C12.1642 16 12.5 15.6642 12.5 15.25C12.5 14.8358 12.1642 14.5 11.75 14.5H5.75C5.05964 14.5 4.5 13.9404 4.5 13.25V6.75Z" fill="#4A4A4A"/>
<path d="M16.75 13.3107V16.25C16.75 16.6642 16.4142 17 16 17C15.5858 17 15.25 16.6642 15.25 16.25V13.3107L14.5303 14.0303C14.2374 14.3232 13.7626 14.3232 13.4697 14.0303C13.1768 13.7374 13.1768 13.2626 13.4697 12.9697L15.4697 10.9697C15.7626 10.6768 16.2374 10.6768 16.5303 10.9697L18.5303 12.9697C18.8232 13.2626 18.8232 13.7374 18.5303 14.0303C18.2374 14.3232 17.7626 14.3232 17.4697 14.0303L16.75 13.3107Z" fill="#4A4A4A"/>
</svg>

<svg viewBox="0 0 20 20" xmlns="http://www.w3.org/2000/svg"><path d="M4.5 6.75c0-.69.56-1.25 1.25-1.25h1.514c.473 0 .906.268 1.118.691l.17.342a1.75 1.75 0 0 0 1.566.967h4.132c.69 0 1.25.56 1.25 1.25a.75.75 0 0 0 1.5 0 2.75 2.75 0 0 0-2.75-2.75h-4.132a.25.25 0 0 1-.224-.138l-.17-.342a2.75 2.75 0 0 0-2.46-1.52h-1.514a2.75 2.75 0 0 0-2.75 2.75v6.5a2.75 2.75 0 0 0 2.75 2.75h6a.75.75 0 0 0 0-1.5h-6c-.69 0-1.25-.56-1.25-1.25v-6.5Z" fill="#5C5F62"/><path d="M16.75 13.31v2.94a.75.75 0 0 1-1.5 0v-2.94l-.72.72a.75.75 0 1 1-1.06-1.06l2-2a.75.75 0 0 1 1.06 0l2 2a.75.75 0 1 1-1.06 1.06l-.72-.72Z" fill="#5C5F62"/></svg>
